X:1
T:BEAUTISL
M:6/8
L:1/8
K:A
 cBA E2 A| A3 G3| dcB F2 G| F3- E3| cBA E2 A| G3 B3| BcBA-G F| E6|\
 B3 E3| A3 E3| AAAA-G F| E2- c d3| cdc B2 B| edc d3| dcBA-E A| c- B2- B A2-|\
 A6|
